X:177
T:Silver Spire (reel), The 
B:CRE1.164 (Spiora Airgid)
F:file ID: cre.1/177silv_s
S:Sonny Brogan
M:C
L:1/8
Q:180
R:reel
K:D
D2 (3FED DFA2|dcde fdAF|GABG FADF|(3GFE (3FED CEA,2|
D2 (3FED DFA2|dcde fdAF|GABG (3FGA DF|EA,CE D3z:|
A,B,CD EFGE|(3FED EF GABc|dcBA Bcde|fdgf e3A|
defd cdAc|dcdB AFDF|GABG FADF|EA,CE D3z:|

%%%

